packages/katcn/src/icons/svg/rightIndent-solid.svg

<svg width="24" height="25" viewBox="0 0 24 25" fill="none" xmlns="http://www.w3.org/2000/svg">
<path d="M20.1 5.99602H3.9C2.8 5.99602 2 5.19602 2 4.19602C2 3.09602 2.8 2.29602 3.9 2.29602H20.2C21.2 2.29602 22.1 3.09602 22.1 4.19602C22 5.19602 21.2 5.99602 20.1 5.99602Z" fill="black"/>
<path d="M3.9 13.196H11.2C12.2 13.196 13.1 13.996 13.1 15.096C13.1 16.096 12.3 16.996 11.2 16.996H3.9C2.9 16.996 2 16.196 2 15.096C2 13.996 2.8 13.196 3.9 13.196Z" fill="black"/>
<path d="M3.9 7.69601H11.2C12.2 7.69601 13.1 8.49601 13.1 9.59601C13.1 10.596 12.3 11.496 11.2 11.496H3.9C2.8 11.396 2 10.596 2 9.59601C2 8.59601 2.8 7.69601 3.9 7.69601Z" fill="black"/>
<path d="M3.9 18.596H20.2C21.2 18.596 22.1 19.396 22.1 20.496C22.1 21.496 21.3 22.396 20.2 22.396H3.9C2.9 22.396 2 21.596 2 20.496C2 19.396 2.8 18.596 3.9 18.596Z" fill="black"/>
<path d="M21 17.196C20.7 17.296 20.5 17.396 20.2 17.396C19.8 17.396 19.4 17.296 19.1 16.996L14.7 13.696C14.3 13.396 14 12.896 14 12.296C14 11.696 14.3 11.196 14.7 10.796L19.1 7.49602C19.7 7.09602 20.4 6.99602 21 7.29602C21.6 7.59602 22 8.19602 22 8.89602V15.396C22 16.296 21.6 16.896 21 17.196Z" fill="black"/>
</svg>

<svg xmlns="http://www.w3.org/2000/svg" fill="none" viewBox="0 0 24 25"><path fill="#000" d="M20.1 5.996H3.9c-1.1 0-1.9-.8-1.9-1.8 0-1.1.8-1.9 1.9-1.9h16.3c1 0 1.9.8 1.9 1.9-.1 1-.9 1.8-2 1.8m-16.2 7.2h7.3c1 0 1.9.8 1.9 1.9 0 1-.8 1.9-1.9 1.9H3.9c-1 0-1.9-.8-1.9-1.9s.8-1.9 1.9-1.9m0-5.5h7.3c1 0 1.9.8 1.9 1.9 0 1-.8 1.9-1.9 1.9H3.9c-1.1-.1-1.9-.9-1.9-1.9s.8-1.9 1.9-1.9m0 10.9h16.3c1 0 1.9.8 1.9 1.9 0 1-.8 1.9-1.9 1.9H3.9c-1 0-1.9-.8-1.9-1.9s.8-1.9 1.9-1.9m17.1-1.4c-.3.1-.5.2-.8.2-.4 0-.8-.1-1.1-.4l-4.4-3.3c-.4-.3-.7-.8-.7-1.4s.3-1.1.7-1.5l4.4-3.3c.6-.4 1.3-.5 1.9-.2s1 .9 1 1.6v6.5c0 .9-.4 1.5-1 1.8"/></svg>
